X:67
T:Fiddlin' John McGreevy
R:reel
C: 1990, 2010 L.E. McCullough 
M:4/4 
L:1/8
K:D
|:D~F3 DEFE|DEFA ~B3c|d~F3 AFBF|AFED ~E3F|
D~F3 DEFE|DEFA ~B3c|dBfe dBgf|edce d3A:| 
|:~B3A BAFE|~B3A (3Bcd ef|g~e3 ~f3d|~e3f edBA|
~B3A BAFE|~B3A (3Bcd ef|~g2 bg faaf|1 gfed BAFA:|2 gfed (3Bcd AF|]
<end>
<start>
